X:14
T:Spanish Cloak, The
T:Munster Cloak, The
T:An Fhallaingin Mhuimhneach
R:air
Z:id:hn-air-14
M:3/4
L:1/8
K:G
G2 GA BG | A2 AB cA | G2 GA Bd | c2 A2 d2 |
G2 GA BG | A2 AB cA | d2 de fd |1 c2 A2 d2 :|2 c2 A2 f2 ||
|: g2 ga gf | d2 g2 a2 | b2 a2 g2 | f2 g2 a2 |
b2 a2 g2 | f2 de fd | dc Ad cA |1 A2 G2 G2 :|2 AG FG AF ||
<end>
<start>
